X:70
T:Soun, Soun, Bni, Bni
M:2/4
L:1/8
N:Mouvt de Berceuse
N:La Bourre 4th edition 1929, page 72
Z:Steve Mansfield www.lesession.co.uk May 2012
K:G
B2 B A/ B/ | c B A G | A2 A G/ A/ | 
B A G2 | B2 B A/ B/ | c B A G | 
A2 A G/ A/ | B A G2 | A > A A B | 
G A B2 - | B > A G2 - | G2 D2 | A > A A B | 
G A B2 | A > A A B/ A/ | (GF) E2 | G4 |]
<end>
<start>
